X:1
T:Parce mihi, Domine 
T:Source : Libro primo di mottetti passeggiati a una voce---Roma---1612. Racolta del Sig.Francesco de Nobili. Editor : André Vierendeels (26/10/15) Notes : Original clefs : C4, F4 Note values have been halved in 3-beat measures Figures in BC are notated in original Ms
T:Giovanni Girolamo Kapsperger
T:©
T:©
T:©
T:©
T:©
T:©
T:©
Z:©
%%score 1 { 2 | 3 }
L:1/8
Q:1/4=122
M:4/4
K:C
V:1 treble-8 nm="Tenor" snm="T"
V:2 treble nm="MusicXML Part"
V:3 bass 
V:1
 d8- | d4 c2 c2- | c2 B2 B4- | B2 A2 A4- | A2 z A Bc B>A | B2 c/A/B/c/ d4 | c4 e4- | %7
w: Par-|* ce mi-|* hi, Do-|* mi- ne,|_ ni- hil e- nim sunt|di- es _ _ _ me-|i quid|
 e d/c/ B/A/^G/^F/ G4 | ^G4 B2 Bc | A6 BB | E/F/G/A/ B/D/E/F/ G/A/B/^c/ d>e | %11
w: _ est _ _ _ _ _ ho-|mo, qui- a ma-|gni- fi- cas|e- * * * * * * * * * * * * *|
 ^c/d/c/d/ c/d/c/c/4c/4 c/c/c/B/ c2 | d6 A2 | A2 B2 c4- | cBAG A4 | B4 D/E/F/G/ A/B/c/d/ | %16
w: |um? Aut|quid ap- po-|* nis er- ga e-|um cor _ _ _ _ _ _ _|
 ^G2 A4 G2 | A8 | e2 ed f4 | c3 d d3 c | c6 d2 | e3 e d4 | c/d/e/d/ c/B/A/B/ c/B/A/G/ ^F/G/A | %23
w: tu- * *|um?|Vi- si- tas e-|um di- lu- cu-|lo, et|su- bi- to|pro- * * * * * * * * * * * * * *|
 D/E/^F/G/ A/B/c/d/ B/c/d/G/ A/B/A/A/4A/4 | A/A/A/G/ ^FG A4 | G8 | d6 c2 | c4- cBcd | A4 A4 | %29
w: |* * * * * bas il-|lum.|Us- que-|quo _ non par- cis|mi- hi,|
 e6 d/c/B/A/ | B6 B2 | A6 c2 | f3 f f2 e2 | d2 c2 d4 | c6 G2 | ^G2 A4 G2 | A6 c2 | ^c2 d4 c2 | %38
w: nec di- * * *|mit- tas|me, ut|glu- ti- am sa-|li- vam me-|am? Pec-|ca- * *|vi, pec-|ca- * *|
 d6 A2 | c6 c2 | B4 d4 | A4 z D/E/ F/G/A/B/ | c4 e4- | e2 d/c/B/A/ ^G2 E/^F/G/A/ | %44
w: vi. Quid|fa- ci-|am ti-|bi, O, _ _ _ _ _|cu- stos|_ _ _ _ _ ho- * * * *|
 B/c/d/B/ c/d/e/E/ ^F/^G/A/F/ G/A/B/A/ | ^G/A/G/A/ G/A/A/4A/4A/4A/4 ^F G2 G | A8 | c6 B2 | %48
w: |* * * * * * * * * * * * mi-|num?|Qua- re|
 ^c3 c d3 d | B6 c2 | A2 AG F4 | E4 e4 | fe dc B4 | A4 B2 c2 | d6 G2 | E6 F2 | D8 | A2 Bc d4- | %58
w: po- su- i- sti|me con-|tra- ri- um ti-|bi, et|fa- * ctus _ sum|mi- hi met-|i- psi|gra- *|vis?|Cor non _ tol-|
 d2 c4 B2- | B2 A4 G2- | G F/G/ A/F/G/A/ _B/G/A/B/ A/G/F/E/4D/4 | E3 F/G/ E4- | E2 c2 c4- | %63
w: * lis pec-|* ca- tum|_ me- * * * * * * * * * * * * * *|* * * um,|_ et qua-|
 c2 B4 B2 | A4 G4 | z2 G2 A2 B2 | cGAB c4- | c2 B2 c4 | B/c/d/e/ c/d/B/c/ A/B/G/A/ B/c/A/B/ | %69
w: * re non|au- fers|in- i- qui-|ta- * * * *|* * tem|me- * * * * * * * * * * * * * * *|
 ^F/G/E/F/ D/E/F/D/ E/F/G/D/ E/F/G/A/ | B/c/4d/4 B2 c/d/ G/A/B/G/ A/B/c/B/ | A3 G A4 | %72
w: |||
 !fermata!G8 |] %73
w: am.|
V:2
 z8 | z8 | z8 | z8 | z8 | z8 | z8 | z8 | z8 | z8 | z8 | z8 | z8 | z8 | z8 | z8 | z8 | z8 | z8 | %19
 z8 | z8 | z8 | z8 | z8 | z8 | z8 | z8 | z8 | z8 | z8 | z8 | z8 | z8 | z8 | z8 | z8 | z8 | z8 | %38
 z8 | z8 | z8 | z8 | z8 | z8 | z8 | z8 | z8 | z8 | z8 | z8 | z8 | z8 | z8 | z8 | z8 | z8 | z8 | %57
 z8 | z8 | z8 | z8 | z8 | z8 | z8 | z8 | z8 | z8 | z8 | z8 | z8 | z8 | A4 G2 ^F2 | z8 |] %73
V:3
 G,8 | E,4 E,4- | E,4 E,4 | F,8- | F,8 | G,2 E,2 G,4 | C,8 | D,4 E,4 | E,8 | F,4 D,4 | D,6 G,,2 | %11
 A,,8 | D,8 | C,2 B,,2 A,,4 | F,4 A,4 | E,4 D,4 | E,8 | A,,8 | C3 B, A,4 | E,3 F, G,4 | C,6 B,,2 | %21
 C,4 B,,4 | A,,8 | B,,8 | D,8 | G,,8 | G,4 F,4- | F,4 E,4 | D,8 | A,,8 | E,8 | F,8 | F,8 | G,8 | %34
 C,8 | E,2 C,2 B,,4 | A,,4 F,4 | G,2 F,2 E,4 | D,8 | A,,8 | E,4 B,,4 | D,8 | A,,8 | E,8 | E,8- | %45
 E,8 | A,,8 | A,4 ^G,4 | A,4 ^F,4 | G,4 E,4 | F,3 E, D,4 | A,,8 | D,4 E,4 | F,4 G,2 A,2 | %54
 _B,4 G,4 | A,,8 | D,8 | D,8 | A,,4 E,4 | F,4 C,4 | D,8 | A,,8- | A,,8 | E,8 | F,4 C,4 | %65
 z2 E,2 F,2 G,2 | A,4 E,2 F,2 | G,4 C,4 | G,,8 | B,,8 | G,,8 | D,8 | !fermata!G,,8 |] %73

